src/assets/media/svg/sprite/link.svg

<svg width="24" height="24" viewBox="0 0 24 24" fill="none" xmlns="http://www.w3.org/2000/svg">
<path d="M22.2237 3.63526L20.3648 1.77638C19.7075 1.11912 18.816 0.749878 17.8864 0.749878C16.9569 0.749878 16.0654 1.11912 15.408 1.77638L12.3098 4.87501C11.6526 5.53238 11.2834 6.42386 11.2834 7.35338C11.2834 8.28291 11.6526 9.17438 12.3098 9.83176L12.6192 10.1415L13.182 10.704L14.4214 9.46501L13.8589 8.90251L13.5492 8.59238C13.2205 8.26374 13.0359 7.81804 13.0358 7.35327C13.0357 6.88851 13.2203 6.44275 13.5488 6.11401L16.647 3.01576C16.9758 2.68726 17.4215 2.50274 17.8862 2.50274C18.351 2.50274 18.7967 2.68726 19.1254 3.01576L20.9843 4.87501C21.3128 5.20368 21.4973 5.64934 21.4973 6.11401C21.4973 6.57868 21.3128 7.02433 20.9843 7.35301L17.886 10.4513C17.6013 10.7359 17.2273 10.9138 16.8268 10.9551C16.4264 10.9964 16.0239 10.8986 15.687 10.6781L14.4342 11.9306C15.1072 12.4782 15.9594 12.7568 16.8259 12.7125C17.6925 12.6682 18.5118 12.3041 19.1254 11.6906L22.2237 8.59238C22.5492 8.26693 22.8073 7.88055 22.9835 7.45531C23.1597 7.03007 23.2503 6.57429 23.2503 6.11401C23.2503 5.65372 23.1597 5.19795 22.9835 4.7727C22.8073 4.34746 22.5492 3.96108 22.2237 3.63563V3.63526ZM10.4513 17.8864L7.35304 20.9843C7.0243 21.3128 6.57859 21.4973 6.11385 21.4973C5.64912 21.4973 5.2034 21.3128 4.87467 20.9843L3.01579 19.1254C2.85296 18.9627 2.72378 18.7695 2.63565 18.5569C2.54751 18.3443 2.50215 18.1164 2.50215 17.8862C2.50215 17.656 2.54751 17.4281 2.63565 17.2155C2.72378 17.0029 2.85296 16.8097 3.01579 16.647L6.11404 13.5491C6.44274 13.2204 6.88856 13.0358 7.35342 13.0358C7.81827 13.0358 8.26409 13.2204 8.59279 13.5491L8.90179 13.8589L9.46429 14.4214L10.7037 13.1824L10.1408 12.6195L9.83179 12.3098C9.1744 11.6525 8.28285 11.2832 7.35323 11.2832C6.42361 11.2832 5.53206 11.6525 4.87467 12.3098L1.77642 15.408C1.45093 15.7335 1.19273 16.1198 1.01658 16.5451C0.840422 16.9703 0.749756 17.4261 0.749756 17.8864C0.749756 18.3467 0.840422 18.8024 1.01658 19.2277C1.19273 19.6529 1.45093 20.0393 1.77642 20.3648L3.63529 22.2236C4.2927 22.881 5.18433 23.2504 6.11404 23.2504C7.04375 23.2504 7.93538 22.881 8.59279 22.2236L11.6899 19.125C12.3032 18.5113 12.6672 17.692 12.7115 16.8255C12.7558 15.959 12.4774 15.1069 11.9299 14.4338L10.6774 15.6863C10.8981 16.0232 10.996 16.4258 10.9547 16.8264C10.9134 17.2271 10.7353 17.6012 10.4505 17.886L10.4513 17.8864Z" fill="currentColor"/>
<path d="M17.0416 6.95849C17.2058 7.12289 17.2981 7.34578 17.2981 7.57817C17.2981 7.81057 17.2058 8.03346 17.0416 8.19786L8.05806 17.181C7.97671 17.2624 7.88013 17.3269 7.77384 17.3709C7.66754 17.415 7.55361 17.4376 7.43856 17.4376C7.3235 17.4376 7.20957 17.415 7.10328 17.3709C6.99698 17.3269 6.90041 17.2624 6.81906 17.181C6.65471 17.0166 6.56238 16.7937 6.56238 16.5613C6.56238 16.3289 6.65471 16.106 6.81906 15.9416L15.8026 6.95849C15.9669 6.79434 16.1898 6.70215 16.4221 6.70215C16.6544 6.70215 16.8772 6.79434 17.0416 6.95849Z" fill="currentColor"/>
</svg>

<svg xmlns="http://www.w3.org/2000/svg" width="24" height="24" fill="none"><path fill="currentColor" d="m22.224 3.635-1.86-1.859a3.505 3.505 0 0 0-4.956 0L12.31 4.875a3.505 3.505 0 0 0 0 4.957l.31.31.562.562 1.24-1.239-.563-.562-.31-.31a1.753 1.753 0 0 1 0-2.479l3.098-3.098a1.753 1.753 0 0 1 2.478 0l1.86 1.859a1.753 1.753 0 0 1 0 2.478l-3.099 3.098a1.75 1.75 0 0 1-2.199.227l-1.253 1.253a3.506 3.506 0 0 0 4.691-.24l3.099-3.099a3.505 3.505 0 0 0 0-4.956M10.45 17.886l-3.098 3.098a1.753 1.753 0 0 1-2.478 0l-1.86-1.859a1.75 1.75 0 0 1 0-2.478l3.099-3.098a1.753 1.753 0 0 1 2.479 0l.309.31.562.562 1.24-1.239-.563-.562-.31-.31a3.505 3.505 0 0 0-4.956 0l-3.099 3.098a3.505 3.505 0 0 0 0 4.957l1.86 1.859a3.506 3.506 0 0 0 4.957 0l3.097-3.099a3.506 3.506 0 0 0 .24-4.691l-1.253 1.252a1.75 1.75 0 0 1-.226 2.2"/><path fill="currentColor" d="M17.042 6.958a.877.877 0 0 1 0 1.24L8.058 17.18a.875.875 0 0 1-1.496-.62.88.88 0 0 1 .257-.62l8.984-8.983a.877.877 0 0 1 1.239 0"/></svg>
